X:1147
M:6/8
L:1/8
Q:3/8=104
K:G
  d   |B>GB   d>Bd|e2z   (g2   e)| d>cB   B>cA|G2z z2
  B/B/|A>B^c  def |G3     z2   E | F>Ad   f>ge|d2z
e3    |c/B/A2 d3  |B/A/G2 B/A/G2 |HF/A/d2 z GB|d>Bd e>ce|

